X: 24995
T: Maid Of The Valley, The
R: waltz
M: 3/4
K: Fmajor
FF G/A/B cA|(B>cd).B.c.A|F2 (G/A/B) .cA|(B>cd)BcA|F2 G/A/B AG|FF F3||
(3c/d/e|(ffedef)|(e>fedc) .c|(cBAG)(Ac)|(d>e).f.g [c2f2]|
FF G/A/B cA|(B>cd).B.c.A|F2 G/A/B AG|FF F3 (3c/d/e/|
(ffedef)|(e>fedc) c|(cBAG)Ac|~(d>e) .f.g (f/g/a)|
.F.F (G/A/B) .c.A|(B/A/B/c/ d).B.c.A|.F.f G/A/B AG|FF F4||

